X:1
T:The Annunciation
T:The Annunciation
T: Paul Stetsenko
T:Words by Casey FitzGerald
T:Evangelismos
T:Soprano and Alto duet
T:©
T:©
T:©
T:©
T:©
C:Paul Stetsenko
Z:Casey FitzGerald
Z:©
%%score 1 2 { ( 3 5 ) | ( 4 6 ) }
L:1/8
Q:3/8=65
M:6/8
K:Gmin
V:1 treble nm="Soprano" snm="S"
V:2 treble nm="Alto" snm="A"
V:3 treble nm="MusicXML Part"
V:5 treble 
V:4 bass 
V:6 bass 
V:1
"^Andante-70" z | z6 | z6 | z6 | z6 | z6 | z6 | z6 | z3 z2!p! d | d2 c B2 A | B3 G3 | e2 d c2 B | %12
w: ||||||||An|An- gel said to|Mar- y,|"Greet- ings, fa- vored|
 A3 z2 d | d2 =f =e2 ^c | d3 A3 | B2 G =E2 A | ^F3 z2!mp! c | c2 e d2 c | c3 B2 B | d2 d (dc)B | %20
w: One!" A|mes- sage to the|Vir- gin,|"You will bear God's|Son." A|child will grow with-|in you for|all the world _ to|
 A3 z2 A | d2 d =e2 e | f2 c d3 | cBA B2 c | A3 z3 |!mp! c3 F3 | d2 c B3 | c3 e3 | d2 c =B3 | %29
w: see, the|Son of God, the|King, most High,|Sav- ior to you and|me.|Mar- y,|filled with faith|Mar- y,|filled with hope;|
 c3 e3 | d2 c _B3 | c3 G3 | B2 A uG2!f! G | B3- B2 d | c2 B2 c2 | d6 | z3 z2 d | e3- e2 d | %38
w: Mar- y,|filled with love;|Mar- y—|filled with grace: Re-|joice, _ the|Lord is with|you!|Re-|joice, _ the|
 c2 B2 A2 | G6 | z3 z2!p! d | d2 c B2 A | B3 G2 G | e2 d c2 B | A3 z2 d | d2 =f =e2 ^c | d3 A2 A | %47
w: Lord is with|you!|When|Mar- y heard the|An- gel, she|said, "How can this|be?" "Through|God the Ho- ly|Spir- it this|
 B2 G =E2 A | ^F3 z2!mp! c | c2 e d2 c | c3 B2 B | d2 d (dc)B | A3 z2 A | d2 d =e2 e | f2 c d3 | %55
w: child will come to|be." A|child will grow with-|in you for|all the world _ to|see, the|Son of God, the|King, most High,|
 cBA B2 c | A3 z3 |!mf! c3 F3 | d2 c B3 | c3 e3 | d2 c =B3 | c3 e3 | d2 c _B3 | c3 G3 | %64
w: sav- ior to you and|me.|Mar- y,|filled with faith;|Mar- y,|filled with hope;|Mar- y,|filled with love;|Mar- y,|
 B2 A uG2!f! G | B3- B2 d | c2 B2 c2 | d6 | z3 z2!mp! d |!>(! e3- e2 d | c2 B2!>)! A2 |!p! G6 | %72
w: filled with grace: Re-|joice, _ the|Lord is with|you!|Re-|joice, _ the|Lord is with|you!|
 z6 | z6 | z6 | z6 |] %76
w: ||||
V:2
 z | z6 | z6 | z6 | z6 | z6 | z6 | z6 | z3!p! z2 B | B2 A G2 ^F | G3 G3 | c2 B A2 G | ^F3 z2 =F | %13
w: ||||||||An|An- gel said to|Mar- y,|"Greet- ings, fa- vored|One!" A|
 F2 =A G2 =E | F3 F3 | D2 D ^C2 =E | D3 z2!mp! A | A2 =c B2 A | A3 G2 G | B2 B (BA)G | ^F3 z2 A | %21
w: mes- sage to the|Vir- gin,|"You will bear God's|Son." A|child will grow with-|in you for|all the world _ to|see, the|
 B2 B c2 B | A2 =F B3 | AGF G2 =E | F3 z3 | z6 |!mp! B3 F3 | A2 G F3 | F3 _A3 | G2 F E3 | D3 G3 | %31
w: Son of God, the|King, most High,|sav- ior to you and|me.||Mar- y,|filled with faith;|Mar- y,|filled with hope;|Mar- y—|
 G2 A B3 | d2 c B2 z | z2!f! D =F2 B | A2 G2 A2 | B6 | z6 | z2 F G2 F | E2 D2 ^F2 | G6 | %40
w: filled with love;|Mar- * y,|Re- joice, the|Lord is with|you!||Re- joice, the|Lord is with|you!|
 z3 z2!p! B | B2 A G2 ^F | G3 G2 G | c2 B A2 G | ^F3 z2 =F | F2 =A G2 =E | F3 F2 F | D2 D ^C2 C | %48
w: When|Mar- y heard the|An- gel, she|said, "How can this|be?" "Through|God the Ho- ly|Spir- it this|child will come to|
 D3 z2!mp! A | A2 c B2 A | A3 G2 G | B2 B (BA)G | ^F3 z2 A | B2 B c2 B | A2 =F B3 | AGF G2 =E | %56
w: be." A|child will grow with-|in you for|all the world _ to|see, the|Son of God, the|King, most High,|sav- ior to you and|
 F3 z3 | z6 |!mf! B3 F3 | A2 G F3 | F3 _A3 | G2 F E3 | D3 G3 | G2 A B3 | d2 c B2 z | %65
w: me.||Mar- y,|filled with faith;|Mar- y,|filled with hope;|Mar- y,|filled with love;|Mar- * y,|
 z2!f! D =F2 B | A2 G2 A2 | B6 | z6 | z2!mp! F G2!>(! F | E2 D2 ^F2!>)! |!p! G6 | z6 | z6 | z6 | %75
w: Re- joice, the|Lord is with|you!||Re- joice, the|Lord is with|you!||||
 z6 |] %76
w: |
V:3
!p! D- | [DGB]3- [DGB]2 [DBd] | [EAc]2 [DGB]2 [EAc]2 | [Dd]6- | [Fd]3- [Fd]2 [Fd] | %5
 [Ge]3- [Ge]2 [Fd] | [Ec]2 [DB]2 [CA]2 | [B,G]6- | [B,G]3 z2 [Bd] | [Bd]2 [Ac] [GB]2 [^FA] | %10
 [GB]3 G2 G | [ce]2 [Bd] [Ac]2 [GB] | [^FA]3 z2 [=Fd] | [=Fd]2 [Af] [G=e]2 [=E^c] | [Fd]3 [FA]3 | %15
 [DB]2 [DG] [^C=E]2 [CA] | [D^F]3 z2 [Ac]!mp! | [Ac]2 [ce] [Bd]2 [Ac] |{[Ac]d} [Ac]3 [GB]2 [GB] | %19
 [Bd]2 [Bd] [Bd][Ac][GB] | [^FA]3 z2 [FA] | [=Fd]2 [Fd] [G=e]2 [Ge] | [Af]2 [Fc] [Fd]3 | %23
 [Ac][GB][FA] [GB]2 [=Ec] | [FA]3- [FA]2 z |!mf! [Ac]3 F3 | [Fd]2 [Fc] [FB]3 | [Ac]3 [Fe]3 | %28
 [F=Bd]2 [Ec] [DGB]3 | [EGc]3 [Gce]3 | [^Fd]2 [Fc] [G_B]3 | [EGc]3 [EG]3 | B2 A G2 G | %33
 [D=FB]3- [DFB]2 [FBd] | [FAc]2 [FGB]2 [FAc]2 | [Fd]6- | [Fd]3- [Fd]2 [Fd] | [Ge]3- [Ge]2 [Fd] | %38
 [Ec]2 [DB]2 [CA]2 | [B,G]6- | [B,G]3 z2 [Bd] | [Bd]2 [Ac] [GB]2 [^FA] | [GB]3 G2 G | %43
 [ce]2 [Bd] [Ac]2 [GB] | [^FA]3 z2 [=Fd] | [=Fd]2 [Af] [G=e]2 [=E^c] | [Fd]3 [FA]2 [FA] | %47
 [DB]2 [DG] [^C=E]2 [CA] | [D^F]3 z2 [Ac]!mp! | [Ac]2 [ce] [Bd]2 [Ac] |{[Ac]d} [Ac]3 [GB]2 [GB] | %51
 [Bd]2 [Bd] [Bd][Ac][GB] | [^FA]3 z2 [FA] | [=Fd]2 [Fd] [G=e]2 [Ge] | [Af]2 [Fc] [Fd]3 | %55
 [Ac][GB][FA] [GB]2 [=Ec] | [FA]3- [FA]2 z | [Ac]3 F3 | [Fd]2 [Fc] [FB]3 | [Ac]3 [Fe]3 | %60
 [F=Bd]2 [Ec] [DGB]3 | [EGc]3 [Gce]3 | [^Fd]2 [Fc] [G_B]3 | [EGc]3 [EG]3 | B2 A G2 G | %65
 [D=FB]3- [DFB]2 [FBd] | [FAc]2 [FGB]2 [FAc]2 | [Fd]6- | [Fd]3- [Fd]2 [Fd] | [Ge]3- [Ge]2 [Fd] | %70
 [Ec]2 [DB]2 [CA]2 | [B,G]6- | [B,G]6 |!>(! z6 | GAB dga!>)! |!pp! [dgb]6 |] %76
V:4
 z | G,,D,G, A, B,2 | C,G,C D E2 | G,,D,G, A, B,2 | =B,,G,D G, B,,2 | C,G,C D E2 | D,A,^F A, D,2 | %7
 G,,D,G, A, B,2 | G,,D,G, A, B,2 | G,,D,B, D,CA, | G,,D,B, D,DB, | C,G,C D E2 | %12
 D,[I:staff -1]D[I:staff +1]A, ^F,D,A,, | A,,D=F, A,,^CG, | D,DA, F,A,D | G,,D,B, A,,=E,A, | %16
 D,^F,A, D3 | ^F,,D,A, ^F,DC | G,,D,B, G,DB, | C,G,C D E2 |[I:staff -1] ED[I:staff +1]C CB,A, | %21
 B,F,B, CG,C | A,,F,C B,,F,D | C,A,C C,G,C | F,,C,F, A,2 z | F,,C,F, A,_EC | F,,F,F, DB,F, | %27
 F,,C,F, A,EC | G,,D,G, =B,3 | C,G,C A,,G,C | D,A,^F, G,B,G, | C,G,C ^C,G,B, | D,A,C E,G,B, | %33
 D,B,F, D, B,,2 | F,,C,F, A,EC | B,,F,B, D[I:staff -1]FB |[I:staff +1] =B,,G,D G, B,,2 | %37
 C,G,C D E2 | D,A,^F A, D,2 | G,,D,G, A, B,2 | G,,D,G, A, B,2 | G,,D,B, D,CA, | G,,D,B, D,DB, | %43
 C,G,C D E2 | D,[I:staff -1]D[I:staff +1]A, ^F,D,A,, | A,,D=F, A,,^CG, | D,DA, F,A,D | %47
 G,,D,B, A,,=E,A, | D,^F,A, D3 | ^F,,D,A, ^F,DC | G,,D,B, G,DB, | C,G,C D E2 | %52
[I:staff -1] ED[I:staff +1]C CB,A, | B,F,B, CG,C | A,,F,C B,,F,D | C,A,C C,G,C | F,,C,F, A,2 z | %57
 F,,C,F, A,_EC | F,,F,F, DB,F, | F,,C,F, A,EC | G,,D,G, =B,3 | C,G,C A,,G,C | D,A,^F, G,B,G, | %63
 C,G,C ^C,G,B, | D,A,C E,G,B, | D,B,F, D, B,,2 | F,,C,F, A,EC | B,,F,B, D[I:staff -1]FB | %68
[I:staff +1] =B,,G,D G, B,,2 | C,G,C D E2 | D,A,^F A, D,2 | G,,D,G, A, B,2 | G,,D,G, A, B,2 | %73
 G,,D,G, A,B,D | z6 |"^2011, Alexandria, Virginia" z6 |] %76
V:5
 x | x6 | x6 | B6 | _A3 G2 F | E2 z x3 | x6 | x6 | x6 | x6 | x6 | x6 | x6 | x6 | x6 | x6 | x6 | %17
 x6 | x6 | E6 | x6 | x6 | x6 | x6 | x6 | x6 | x6 | x6 | x6 | x6 | D3 D3 | x6 | [D^F]3 E3 | x6 | %34
 x6 | B6 | _A3 G2 F | E2 z x3 | x6 | x6 | x6 | x6 | x6 | x6 | x6 | x6 | x6 | x6 | x6 | x6 | x6 | %51
 E6 | x6 | x6 | x6 | x6 | x6 | x6 | x6 | x6 | x6 | x6 | D3 D3 | x6 | [D^F]3 E3 | x6 | x6 | B6 | %68
 _A3 G2 F | E2 z x3 | x6 | x6 | x6 | x6 | x6 | G6 |] %76
V:6
 x | x6 | x6 | x6 | x6 | x6 | x6 | x6 | x6 | x6 | x6 | x6 | x6 | x6 | x6 | x6 | x6 | x6 | x6 | x6 | %20
 D,6 | B,,3 B,,3 | x6 | x6 | x6 | x6 | x6 | x6 | x6 | x6 | x6 | x6 | x6 | x6 | x6 | x6 | x6 | x6 | %38
 x6 | x6 | x6 | x6 | x6 | x6 | x6 | x6 | x6 | x6 | x6 | x6 | x6 | x6 | D,6 | B,,3 B,,3 | x6 | x6 | %56
 x6 | x6 | x6 | x6 | x6 | x6 | x6 | x6 | x6 | x6 | x6 | x6 | x6 | x6 | x6 | x6 | x6 | x6 | x6 | %75
 x6 |] %76

